src/assets/icons/fa/flask.svg

<?xml version="1.0" encoding="utf-8"?>
<svg width="1792" height="1792" viewBox="0 0 1792 1792" xmlns="http://www.w3.org/2000/svg"><path d="M1591 1448q56 89 21.5 152.5t-140.5 63.5h-1152q-106 0-140.5-63.5t21.5-152.5l503-793v-399h-64q-26 0-45-19t-19-45 19-45 45-19h512q26 0 45 19t19 45-19 45-45 19h-64v399zm-779-725l-272 429h712l-272-429-20-31v-436h-128v436z"/></svg>

<svg width="1792" height="1792" xmlns="http://www.w3.org/2000/svg"><path d="M1591 1448q56 89 21.5 152.5T1472 1664H320q-106 0-140.5-63.5T201 1448l503-793V256h-64q-26 0-45-19t-19-45 19-45 45-19h512q26 0 45 19t19 45-19 45-45 19h-64v399zM812 723l-272 429h712L980 723l-20-31V256H832v436z"/></svg>
